X: 4
T: Nongfu ge
%%abc-version 2.0
%%abcx-abcm2ps-target-version 5.9.1 (29 Sep 2008)
%%abc-creator hum2abc beta
%%abcx-conversion-date 2013/10/02 07:44:27
%%abc-edited-by Helmut Schaffrath
%%humdrum-veritas 2604515754
%%humdrum-veritas-data 3975989661
%%continueall 1
%%barnumbers 0
L: 1/8
M: 6/8
K: Bb
d' d' d' d' d' d' [I:setbarnb 1]| 
c'2c'a2z | 
d' d' d' b> d' b/ a/ | 
g2gd3 | 
gg2b> g b | 
gg2d2d | 
c'> d' d' b> d' b/ a/ | 
g2dg2a | 
c'3d'3 | 
g'3-g'> d' b/ a/ | 
g3-g2b/ a/ | 
gd2g3 |]  



